local/share/icons/dracula-icons-main/symbolic/actions/nemo-desktop-scale-symbolic.svg

<?xml version="1.0" encoding="UTF-8" standalone="no"?>
<svg
   xmlns:dc="http://purl.org/dc/elements/1.1/"
   xmlns:cc="http://creativecommons.org/ns#"
   xmlns:rdf="http://www.w3.org/1999/02/22-rdf-syntax-ns#"
   xmlns:svg="http://www.w3.org/2000/svg"
   xmlns="http://www.w3.org/2000/svg"
   xmlns:sodipodi="http://sodipodi.sourceforge.net/DTD/sodipodi-0.dtd"
   xmlns:inkscape="http://www.inkscape.org/namespaces/inkscape"
   width="22"
   height="22"
   viewBox="0 0 22 22"
   version="1.1"
   id="svg7"
   sodipodi:docname="nemo-desktop-scale-symbolic.svg"
   inkscape:version="0.92.3 (2405546, 2018-03-11)">
  <metadata
     id="metadata11">
    <rdf:RDF>
      <cc:Work
         rdf:about="">
        <dc:format>image/svg+xml</dc:format>
        <dc:type
           rdf:resource="http://purl.org/dc/dcmitype/StillImage" />
        
      </cc:Work>
    </rdf:RDF>
  </metadata>
  <sodipodi:namedview
     pagecolor="#ffffff"
     bordercolor="#666666"
     borderopacity="1"
     objecttolerance="10"
     gridtolerance="10"
     guidetolerance="10"
     inkscape:pageopacity="0"
     inkscape:pageshadow="2"
     inkscape:window-width="1920"
     inkscape:window-height="998"
     id="namedview9"
     showgrid="false"
     inkscape:zoom="10.727273"
     inkscape:cx="11"
     inkscape:cy="11"
     inkscape:window-x="3840"
     inkscape:window-y="1107"
     inkscape:window-maximized="1"
     inkscape:current-layer="svg7" />
  <defs
     id="defs3">
    <style
       id="current-color-scheme"
       type="text/css">
   .ColorScheme-Text { color:#6e6e6e; } .ColorScheme-Highlight { color:#5294e2; }
  </style>
  </defs>
  <path
     style="fill:#363636;fill-opacity:1"
     d="m 11,1.9997602 -2,4 h 4 c 0,0.03603 -2,-4 -2,-4 z"
     id="path4671"
     inkscape:connector-curvature="0" />
  <path
     style="fill:#363636;fill-opacity:1"
     d="m 9,16 2,4 2,-4 z"
     id="path4669"
     inkscape:connector-curvature="0" />
  <path
     style="fill:#363636;fill-opacity:1"
     d="m 20.00024,11 -4,-2 v 4 c -0.03603,0 4,-2 4,-2 z"
     id="path4671-7"
     inkscape:connector-curvature="0" />
  <path
     style="fill:#363636;fill-opacity:1"
     d="m 6,9 -4,2 4,2 z"
     id="path4669-0"
     inkscape:connector-curvature="0" />
</svg>

<?xml version="1.0" encoding="UTF-8"?>
<svg xmlns="http://www.w3.org/2000/svg" xmlns:xlink="http://www.w3.org/1999/xlink" width="22" height="22" viewBox="0 0 22 22">
<path fill-rule="nonzero" fill="rgb(21.176471%, 21.176471%, 21.176471%)" fill-opacity="1" d="M 11 2 L 9 6 L 13 6 C 13 6.035156 11 2 11 2 Z M 11 2 "/>
<path fill-rule="nonzero" fill="rgb(21.176471%, 21.176471%, 21.176471%)" fill-opacity="1" d="M 9 16 L 11 20 L 13 16 Z M 9 16 "/>
<path fill-rule="nonzero" fill="rgb(21.176471%, 21.176471%, 21.176471%)" fill-opacity="1" d="M 20 11 L 16 9 L 16 13 C 15.964844 13 20 11 20 11 Z M 20 11 "/>
<path fill-rule="nonzero" fill="rgb(21.176471%, 21.176471%, 21.176471%)" fill-opacity="1" d="M 6 9 L 2 11 L 6 13 Z M 6 9 "/>
</svg>
